src/assets/img/games/bacteria/logo.svg

<svg xmlns:xlink="http://www.w3.org/1999/xlink" height="58.45" width="59" xmlns="http://www.w3.org/2000/svg"><g transform="translate(1 .95)"><use height="58.45" transform="translate(-1 -.95)" width="59" xlink:href="#a"/><use height="29.3" transform="translate(7.35 13.65)" width="42.05" xlink:href="#b"/></g><defs><path d="M29.1 20.1h-4.3v7.4h3.9l1.1-.1.85-.25.7-.7.3-1.1q.05-.65-.35-1.15-.4-.5-1.15-.65l.75-.5q.4-.45.4-1.1 0-.85-.6-1.35-.55-.55-1.6-.5m-.85 4.3.9.2.2.55q0 .35-.2.5l-.9.25h-1.1v-1.5h1.1m.6-2.65.15.5-.15.55-.75.2h-.95v-1.4h1l.7.15m11.65 9.5 1.05 3.65 2.9-1.1-1.2 4.35-5.2 4.6-3.45-4.2 3.85-2.05q-2-5.1-3.8-8.15L28.1 34.9l-6.35-6.3-.3.45-.1.25q-1.65 2.8-3.55 7.45l4.1 2.15-3.65 4.05-6-5.65-.7-3.5 3.65 1.65.7-3.5q.2-1.2.75-2.65.65-1.8 1.8-4.05l-11.1-11.1q6 3.3 13.05 6.7l.5.25.55-.75q.7-.8 1.3-1.1.6-.55 1.3-.85 1.65-2.4 4-3.7 2.35 1.3 4 3.65l1.6 1.15 1.4 1.45 14.35-7.3L37.85 25.2q1.55 2.9 2.65 6.05" fill="#f09" fill-rule="evenodd" transform="translate(-7.35 -13.65)" id="b"/><g id="a"><path d="M50.85 23.5 57 27.3l-5.9 4.15 4.55 5.6L48.7 39l2.3 6.8-7.25-.6-.1 7.3-6.55-3.1-2.65 6.75-5.1-5.15-4.75 5.5-3.1-6.55-6.35 3.45-.6-7.2-7.2 1.15L9.2 40.3l-7.1-1.35 4.1-5.9L0 29.2l5.95-4.1-4.55-5.65 7-1.95-2.3-6.8 7.2.6.1-7.25 6.65 3L22.6.35l5.2 5.1 4.75-5.4L35.6 6.5l6.35-3.4.65 7.15 7.15-1.05-1.85 6.95 7.1 1.4-4.15 5.95m-31.5 6.45q0 1.3.5 1.65l.1-.05h-.1q-.4-.2-.5-1.6m17.2 1.2h.15-.15L36 31q-1.75-.8-3.45-.3l-1 .3 1-.25q1.7-.55 3.4.25l.6.15m-11.4-3.8.1.15.25-.15h-.35m.2 2.85.05-.05h-.15l-.1.05h.2m-.05.85.85.05-.85-.05-2.65-.25-.45.15.4-.1 2.7.2" fill="#fff" fill-rule="evenodd" transform="translate(1 .95)"/><path d="m51.85 24.45 6.15 3.8-5.9 4.15 4.55 5.6-6.95 1.95 2.3 6.8-7.25-.6-.1 7.3-6.55-3.1-2.65 6.75-5.1-5.15-4.75 5.5-3.1-6.55-6.35 3.45-.6-7.2-7.2 1.15 1.85-7.05-7.1-1.35L7.2 34 1 30.15l5.95-4.1L2.4 20.4l7-1.95-2.3-6.8 7.2.6.1-7.25 6.65 3 2.55-6.7 5.2 5.1L33.55 1l3.05 6.45 6.35-3.4.65 7.15 7.15-1.05-1.85 6.95 7.1 1.4-4.15 5.95Z" fill="none" stroke="#f09" stroke-linecap="round" stroke-linejoin="round" stroke-width="2"/></g></defs></svg>

<?xml version="1.0" encoding="UTF-8" standalone="no"?>
<svg xmlns:xlink="http://www.w3.org/1999/xlink" height="58.45px" width="59.0px" xmlns="http://www.w3.org/2000/svg">
  <g transform="matrix(1.0, 0.0, 0.0, 1.0, 1.0, 0.95)">
    <use height="58.45" transform="matrix(1.0, 0.0, 0.0, 1.0, -1.0, -0.95)" width="59.0" xlink:href="#shape0"/>
    <use height="29.3" transform="matrix(1.0, 0.0, 0.0, 1.0, 7.35, 13.65)" width="42.05" xlink:href="#shape1"/>
  </g>
  <defs>
    <g id="shape0" transform="matrix(1.0, 0.0, 0.0, 1.0, 1.0, 0.95)">
      <path d="M50.85 23.5 L57.0 27.3 51.1 31.45 55.65 37.05 48.7 39.0 51.0 45.8 43.75 45.2 43.65 52.5 37.1 49.4 34.45 56.15 29.35 51.0 24.6 56.5 21.5 49.95 15.15 53.4 14.55 46.2 7.35 47.35 9.2 40.3 2.1 38.95 6.2 33.05 0.0 29.2 5.95 25.1 1.4 19.45 8.4 17.5 6.1 10.7 13.3 11.3 13.4 4.05 20.05 7.05 22.6 0.35 27.8 5.45 32.55 0.05 35.6 6.5 41.95 3.1 42.6 10.25 49.75 9.2 47.9 16.15 55.0 17.55 50.85 23.5 M19.35 29.95 Q19.35 31.25 19.85 31.6 L19.95 31.55 19.85 31.55 Q19.45 31.35 19.35 29.95 M36.55 31.15 L36.7 31.15 36.55 31.15 36.0 31.0 Q34.25 30.2 32.55 30.7 L31.55 31.0 32.55 30.75 Q34.25 30.2 35.95 31.0 L36.55 31.15 M25.15 27.35 L25.25 27.5 25.5 27.35 25.15 27.35 M25.35 30.2 L25.4 30.15 25.35 30.15 25.25 30.15 25.15 30.2 25.35 30.2 M25.3 31.05 L26.15 31.1 25.3 31.05 22.65 30.8 22.2 30.95 22.6 30.85 25.3 31.05" fill="#ffffff" fill-rule="evenodd" stroke="none"/>
      <path d="M50.85 23.5 L57.0 27.3 51.1 31.45 55.65 37.05 48.7 39.0 51.0 45.8 43.75 45.2 43.65 52.5 37.1 49.4 34.45 56.15 29.35 51.0 24.6 56.5 21.5 49.95 15.15 53.4 14.55 46.2 7.35 47.35 9.2 40.3 2.1 38.95 6.2 33.05 0.0 29.2 5.95 25.1 1.4 19.45 8.4 17.5 6.1 10.7 13.3 11.3 13.4 4.05 20.05 7.05 22.6 0.35 27.8 5.45 32.55 0.05 35.6 6.5 41.95 3.1 42.6 10.25 49.75 9.2 47.9 16.15 55.0 17.55 50.85 23.5 Z" fill="none" stroke="#ff0099" stroke-linecap="round" stroke-linejoin="round" stroke-width="2.0"/>
    </g>
    <g id="shape1" transform="matrix(1.0, 0.0, 0.0, 1.0, -7.35, -13.65)">
      <path d="M29.1 20.1 L24.8 20.1 24.8 27.5 28.7 27.5 29.8 27.4 30.65 27.15 31.35 26.45 31.65 25.35 Q31.7 24.7 31.3 24.2 30.9 23.7 30.15 23.55 L30.9 23.05 Q31.3 22.6 31.3 21.95 31.3 21.1 30.7 20.6 30.15 20.05 29.1 20.1 M28.25 24.4 L29.15 24.6 29.35 25.15 Q29.35 25.5 29.15 25.65 L28.25 25.9 27.15 25.9 27.15 24.4 28.25 24.4 M28.85 21.75 L29.0 22.25 28.85 22.8 28.1 23.0 27.15 23.0 27.15 21.6 28.15 21.6 28.85 21.75 M40.5 31.25 L41.55 34.9 44.45 33.8 43.25 38.15 38.05 42.75 34.6 38.55 38.45 36.5 Q36.45 31.4 34.65 28.35 L28.1 34.9 21.75 28.6 21.45 29.05 21.35 29.3 Q19.7 32.1 17.8 36.75 L21.9 38.9 18.25 42.95 12.25 37.3 11.55 33.8 15.2 35.45 15.9 31.95 Q16.1 30.75 16.65 29.3 17.3 27.5 18.45 25.25 L7.35 14.15 Q13.35 17.45 20.4 20.85 L20.9 21.1 21.45 20.35 Q22.15 19.55 22.75 19.25 23.35 18.7 24.05 18.4 25.7 16.0 28.05 14.7 30.4 16.0 32.05 18.35 L33.65 19.5 35.05 20.95 49.4 13.65 37.85 25.2 Q39.4 28.1 40.5 31.25" fill="#ff0099" fill-rule="evenodd" stroke="none"/>
    </g>
  </defs>
</svg>
